X: 12
T: The Frieze Breeches
R: jig
M: 6/8
L: 1/8
K: Dmix
A/G/|:FEF DAD|Add cAG|(3.A.c.A A BAG|(3.F.G.A F GFE|
FEF DAD|Add cAG|FAA GEA|~D3 D2 :|
(3A/B/c/|:d2d d2e|fed cAG|(3.A.c.A A BAG|FAF GED|
Add d2e|fed cAG|FAA GEA|~D3 D2 :|
A|:DAD c3|AdB cAG|ABc d2e|(3.g.f.e d cAG|
DAD c3|AdB cAG|FAA GED|~D3 D2 :|
(3A/B/c/|:d2e f2g|~a2f ged|c2d e2f|g3 ecA|
dcd f2g|a2f ged|faf gec|ded d2 :|
e|: fed edc|ded cAG|A3 BAG|FAF GED|
(3.g.f.e d ecA|ded cAG|FAA GEA|~D3 D3|
(3.g.f.e d edc|ded cAG|(3.A.c.A A BAG|FDF GFE|
(3.g.f.e f gge|f2d cAG|F2A GEA|~D3 D2 (3E/F/G/|
|: A2B c2B|c2d cAG|A2d dcd|(3.g.f.e d cAG|
A2B cBA|dcB cAG|FAA GEA|~D3 D3 :|


Tune 34	Setting 23530

